X: 1591
T: Rahatülervah Seyir
C: Şefik Gürmeriç
O: Turkey
F: http://compmusic.upf.edu/node/140
N: rahatulervah--seyir--sofyan--1--sefik_gurmeric
N: makam= rahatulervah
N: form= seyir
N: usul= sofyan = 4/4
M: 4/4
L: 1/16
K: C _7/8B ^c ^f 
Q: 1/4=60
%%MIDI tuningsystem comma53
d4 e4 e4 =f4  | e2d2 c2B2 A4 z4  | g4 ^3/4f2e2 d4 c2d2  | \
w:   |   |   | 
e6g2 f2^e2 f4  | 
w:   | 
a6g2 =f3e d4  | g4 =f4 e2d2 c4  | d2e2 d2=f2 e2d2 c2B2  | \
w:   |   |   | 
A4 B2c2 B2A2 G4  | 
w:   | 
^3/4F2G2 A8 F2A2  | G4 ^3/4F2E2 D8  | \
w:   |   | 
d4 c2B2 A2G2 ^3/4F2G2  | A8 =c6_1/4B2  | \
w:   |   | 
_1/4B2A2 A2G2 G2^3/4F2 F2E2  | 
w:   | 
^3/4F6G2 F2G2 A2_1/4B2  | A4 G2F2 ^E2F2 GAG^3/4F  | ^3/4F16  | |


